build/svg/cmd/sc_spacing.svg

<?xml version="1.0" encoding="UTF-8" standalone="no"?>
<svg
   xmlns:dc="http://purl.org/dc/elements/1.1/"
   xmlns:cc="http://creativecommons.org/ns#"
   xmlns:rdf="http://www.w3.org/1999/02/22-rdf-syntax-ns#"
   xmlns:svg="http://www.w3.org/2000/svg"
   xmlns="http://www.w3.org/2000/svg"
   xmlns:sodipodi="http://sodipodi.sourceforge.net/DTD/sodipodi-0.dtd"
   xmlns:inkscape="http://www.inkscape.org/namespaces/inkscape"
   viewBox="0 0 16 16"
   version="1.1"
   id="svg4"
   sodipodi:docname="sc_spacing.svg"
   inkscape:export-filename="/home/jupiter007/Libreoffice yaru theme fullcolor/build/cmd/sc_spacing.png"
   inkscape:export-xdpi="96"
   inkscape:export-ydpi="96"
   inkscape:version="0.92.5 (2060ec1f9f, 2020-04-08)"><metadata
   id="metadata10">
  <rdf:RDF>
    <cc:Work
       rdf:about="">
      <dc:format>image/svg+xml</dc:format>
      <dc:type
         rdf:resource="http://purl.org/dc/dcmitype/StillImage" />
    </cc:Work>
  </rdf:RDF>
</metadata>
<defs
   id="defs8" />
<sodipodi:namedview
   pagecolor="#ffffff"
   bordercolor="#666666"
   borderopacity="1"
   objecttolerance="10"
   gridtolerance="10"
   guidetolerance="10"
   inkscape:pageopacity="0"
   inkscape:pageshadow="2"
   inkscape:window-width="1920"
   inkscape:window-height="1011"
   id="namedview6"
   showgrid="true"
   inkscape:zoom="29.5"
   inkscape:cx="5.3453542"
   inkscape:cy="5.8955536"
   inkscape:window-x="1920"
   inkscape:window-y="32"
   inkscape:window-maximized="1"
   inkscape:current-layer="svg4">
  <inkscape:grid
     type="xygrid"
     id="grid829" />
</sodipodi:namedview>
/&gt;<path
   sodipodi:nodetypes="cccsscssccccccsssscccssscccssccssccccccccssscc"
   style="opacity:0.6;fill:#000000;stroke:#000000;stroke-width:2;stroke-linejoin:round;stroke-miterlimit:4;stroke-dasharray:none"
   inkscape:connector-curvature="0"
   id="path819"
   d="M 2,2 V 7 H 3 4.5 C 5.32843,7 6,6.32843 6,5.5 6,4.9666982 5.7318023,4.484728 5.3125,4.21875 5.4279583,4.00621 5.5,3.7588844 5.5,3.5 5.5,2.67157 4.82843,2 4,2 H 3 2.5 Z m 8,0 v 5 h 1 1.5 C 13.32843,7 14,6.32843 14,5.5 v -2 C 14,2.67157 13.32843,2 12.5,2 H 11 Z M 3,3 H 4 C 4.27614,3 4.5,3.22386 4.5,3.5 4.5,3.77614 4.27614,4 4,4 H 3 Z m 8,0 h 1.5 C 12.77614,3 13,3.22386 13,3.5 V 4.09375 4.90625 5.5 C 13,5.77614 12.77614,6 12.5,6 H 11 Z M 7,4 V 5 H 9 V 4 Z M 3,5 H 4.5 C 4.77614,5 5,5.22386 5,5.5 5,5.77614 4.77614,6 4.5,6 H 3 Z" />
<path
   d="M 2,2 V 7 H 3 4.5 C 5.32843,7 6,6.32843 6,5.5 6,4.9666982 5.7318023,4.484728 5.3125,4.21875 5.4279583,4.00621 5.5,3.7588844 5.5,3.5 5.5,2.67157 4.82843,2 4,2 H 3 2.5 Z m 8,0 v 5 h 1 1.5 C 13.32843,7 14,6.32843 14,5.5 v -2 C 14,2.67157 13.32843,2 12.5,2 H 11 Z M 3,3 H 4 C 4.27614,3 4.5,3.22386 4.5,3.5 4.5,3.77614 4.27614,4 4,4 H 3 Z m 8,0 h 1.5 C 12.77614,3 13,3.22386 13,3.5 V 4.09375 4.90625 5.5 C 13,5.77614 12.77614,6 12.5,6 H 11 Z M 7,4 V 5 H 9 V 4 Z M 3,5 H 4.5 C 4.77614,5 5,5.22386 5,5.5 5,5.77614 4.77614,6 4.5,6 H 3 Z"
   id="path2"
   inkscape:connector-curvature="0"
   style="fill:#ffffff"
   sodipodi:nodetypes="cccsscssccccccsssscccssscccssccssccccccccssscc" />
<path
   style="opacity:0.6;fill:#000000;fill-opacity:1;stroke:#000000;stroke-width:2;stroke-linecap:butt;stroke-linejoin:round;stroke-miterlimit:4;stroke-dasharray:none;stroke-opacity:1"
   d="M 5 9 L 1 12 L 5 15 L 5 13 L 7 13 L 9 13 L 11 13 L 11 15 L 15 12 L 11 9 L 11 11 L 9 11 L 7 11 L 5 11 L 5 9 z "
   id="path856" />
<path
   style="fill:#aee3f8;fill-opacity:1;stroke:none;stroke-width:1px;stroke-linecap:butt;stroke-linejoin:miter;stroke-opacity:1"
   d="M 5 9 L 1 12 L 5 15 L 5 13 L 7 13 L 9 13 L 11 13 L 11 15 L 15 12 L 11 9 L 11 11 L 9 11 L 7 11 L 5 11 L 5 9 z "
   id="path834-1" />
</svg>

<svg xmlns="http://www.w3.org/2000/svg" viewBox="0 0 16 16">/&gt;<path d="M2 2v5h2.5A1.5 1.5 0 006 5.5c0-.533-.268-1.015-.688-1.281.116-.213.188-.46.188-.719A1.5 1.5 0 004 2H2.5zm8 0v5h2.5A1.5 1.5 0 0014 5.5v-2A1.5 1.5 0 0012.5 2H11zM3 3h1a.5.5 0 010 1H3zm8 0h1.5a.5.5 0 01.5.5v2a.5.5 0 01-.5.5H11zM7 4v1h2V4zM3 5h1.5a.5.5 0 010 1H3z" opacity=".6" stroke="#000" stroke-width="2" stroke-linejoin="round"/><path d="M2 2v5h2.5A1.5 1.5 0 006 5.5c0-.533-.268-1.015-.688-1.281.116-.213.188-.46.188-.719A1.5 1.5 0 004 2H2.5zm8 0v5h2.5A1.5 1.5 0 0014 5.5v-2A1.5 1.5 0 0012.5 2H11zM3 3h1a.5.5 0 010 1H3zm8 0h1.5a.5.5 0 01.5.5v2a.5.5 0 01-.5.5H11zM7 4v1h2V4zM3 5h1.5a.5.5 0 010 1H3z" fill="#fff"/><path d="M5 9l-4 3 4 3v-2h6v2l4-3-4-3v2H5V9z" opacity=".6" stroke="#000" stroke-width="2" stroke-linejoin="round"/><path d="M5 9l-4 3 4 3v-2h6v2l4-3-4-3v2H5V9z" fill="#aee3f8"/></svg>
